src/lib/packages/icons/src/assets/line/like.svg

<svg width="24" height="24" viewBox="0 0 24 24" fill="none" xmlns="http://www.w3.org/2000/svg">
<path d="M21.176 9.60799C20.73 8.98799 19.7991 8.25001 17.9041 8.25001H14.748V5.76301C14.748 4.50701 14.124 3.34102 13.079 2.64302C12.482 2.24502 11.748 2.14299 11.066 2.36299C10.382 2.58299 9.84596 3.094 9.58496 3.795L7.45703 10.25H4.50098C3.26098 10.25 2.25098 11.259 2.25098 12.5V19.5C2.25098 20.741 3.26098 21.75 4.50098 21.75H15.905C18.401 21.75 19.012 20.537 19.463 19.186L21.462 13.186C21.929 11.782 21.827 10.511 21.176 9.60799ZM3.75 19.5V12.5C3.75 12.086 4.087 11.75 4.5 11.75H6.5V20.25H4.5C4.087 20.25 3.75 19.914 3.75 19.5ZM20.037 12.711L18.038 18.711C17.683 19.778 17.4601 20.25 15.9041 20.25H8V11.75C8.324 11.75 8.61006 11.542 8.71106 11.235L10.998 4.29402C11.089 4.05302 11.28 3.87003 11.525 3.79103C11.77 3.71103 12.032 3.74901 12.246 3.89101C12.873 4.30901 13.2469 5.00901 13.2469 5.76301V9.00001C13.2469 9.41401 13.5829 9.75001 13.9969 9.75001H17.903C18.599 9.75001 19.521 9.877 19.959 10.485C20.315 10.979 20.345 11.791 20.037 12.711Z" fill="currentColor"/>
</svg>

<svg xmlns="http://www.w3.org/2000/svg" width="24" height="24" fill="none"><path fill="currentColor" d="M21.176 9.608c-.446-.62-1.377-1.358-3.272-1.358h-3.156V5.763a3.745 3.745 0 0 0-1.669-3.12 2.324 2.324 0 0 0-2.013-.28 2.33 2.33 0 0 0-1.481 1.432L7.457 10.25H4.501a2.253 2.253 0 0 0-2.25 2.25v7c0 1.241 1.01 2.25 2.25 2.25h11.404c2.496 0 3.107-1.213 3.558-2.564l1.999-6c.467-1.404.365-2.675-.286-3.578ZM3.75 19.5v-7a.75.75 0 0 1 .75-.75h2v8.5h-2a.75.75 0 0 1-.75-.75Zm16.287-6.789-1.999 6c-.355 1.067-.578 1.539-2.134 1.539H8v-8.5c.324 0 .61-.208.711-.515l2.287-6.941a.833.833 0 0 1 .527-.503.83.83 0 0 1 .721.1c.627.418 1 1.118 1 1.872V9c0 .414.337.75.75.75h3.907c.696 0 1.618.127 2.056.735.356.494.386 1.306.078 2.226Z"/></svg>
